X: 4058
T: Blencathra
R: jig
M: 6/8
K: Aminor
|:"Am"[EA,]AA AGA|"C"[E2c2] c cBA|"G"[B2D2] B BAG|"Em"[BG]AG [BG]AG|
"Am"[E2A,2] A AGA|"C"[E2c2] c cBA|"G"[B2D2] B BAG|"Am"[E3A3A,3] [E3A3A,3]:|
[K:Emin]
|:"D"[f2A2] f fed|"Em"[B2e2] e efe|"D"[f2A2] f fef|"Em7"[gB]fe [gB]fe|
"D"[f2A2] f fed|"Em"[Be]fe efe|"D"[f2A2] f agf|"Em"[E3B3e3B,3] [E3B3e3B,3]:|

